symbolic/24x24/apps/meld.svg

<svg xmlns="http://www.w3.org/2000/svg" width="24" height="24" version="1.0">
 <path style="opacity:0.2" d="M 9.5,2.5 C 5.345,2.5 2,5.845 2,10 v 2.5 2.5 c 0,4.155 3.345,7.5 7.5,7.5 h 5 C 18.655,22.5 22,19.155 22,15 V 12.5 10 C 22,5.845 18.655,2.5 14.5,2.5 Z"/>
 <path style="fill:#3584e4" d="M 9.5,2 C 5.345,2 2,5.345 2,9.5 V 12 14.5 C 2,18.655 5.345,22 9.5,22 h 5 C 18.655,22 22,18.655 22,14.5 V 12 9.5 C 22,5.345 18.655,2 14.5,2 Z"/>
 <path style="opacity:0.2;fill:#ffffff" d="M 9.5,2 C 5.345,2 2,5.345 2,9.5 V 10 C 2,5.845 5.345,2.5 9.5,2.5 h 5 C 18.655,2.5 22,5.845 22,10 V 9.5 C 22,5.345 18.655,2 14.5,2 Z"/>
 <path style="opacity:0.2" d="M 3.5546875,2.5 C 2.6933763,2.5 2,3.1840217 2,4.0341797 v 6.3955083 1.213867 c 0.4697626,1.188289 1.1467144,2.298456 2.0615234,3.270508 1.0695071,1.136426 2.6581796,2.086933 4.3027346,2.439452 1.644554,0.352517 3.343967,0.10683 4.636719,-1.146484 0.442781,-0.42927 0.816589,-1.065182 0.948242,-1.716796 0.13165,-0.651613 0.02211,-1.318071 -0.5,-1.811524 -0.165702,-0.156608 -0.410571,-0.289734 -0.65918,-0.333984 C 12.542961,12.300747 12.179795,12.304431 12,12.5 c 0.200613,0.17993 0.358408,0.469873 0.313477,0.715821 -0.04524,0.247614 -0.180755,0.492224 -0.340821,0.657226 -0.502483,0.517985 -1.1823,0.726095 -1.844726,0.595703 C 9.4655045,14.338357 8.819162,13.968776 8.3828125,13.530274 7.4285915,12.571353 7.0011555,11.286021 7.022461,10.067383 7.029556,9.661168 7.0805145,9.251101 7.169922,8.8447265 7.5275585,7.219225 8.5414635,5.2006225 9.694336,4.1435547 10.43045,3.4686132 11.244656,2.9260171 12.111328,2.5 Z M 12,12.5 c -0.200612,-0.17993 -0.358407,-0.469873 -0.313476,-0.71582 0.04524,-0.247615 0.180754,-0.492225 0.34082,-0.657227 0.502484,-0.517984 1.1823,-0.726094 1.844727,-0.595703 0.662425,0.130394 1.308767,0.499974 1.745117,0.938477 0.95422,0.95892 1.381656,2.244252 1.360351,3.46289 -0.0071,0.406215 -0.05805,0.816282 -0.147461,1.222656 -0.357637,1.625502 -1.371541,3.644105 -2.524414,4.701172 C 13.56955,21.531387 12.755345,22.073982 11.888672,22.5 h 8.55664 C 21.306624,22.5 22,21.815978 22,20.96582 V 14.570313 13.356446 C 21.530237,12.168156 20.853285,11.057989 19.938476,10.085938 18.868969,8.949511 17.280297,7.9990045 15.635742,7.6464845 13.991188,7.293968 12.291775,7.5396545 10.999024,8.792969 c -0.442781,0.42927 -0.81659,1.0651825 -0.948243,1.716797 -0.1316505,0.651612 -0.02212,1.318071 0.5,1.811523 0.165702,0.156608 0.410571,0.289735 0.65918,0.333985 C 11.45704,12.699253 11.820205,12.69557 12,12.5 Z"/>
 <path style="fill:#ff9632" d="M 3.5546875,2 C 2.6933763,2 2,2.6840217 2,3.5341797 v 6.3955078 1.2138675 c 0.4697626,1.188289 1.1467144,2.298456 2.0615234,3.270508 1.0695071,1.136426 2.6581796,2.086933 4.3027346,2.439452 1.644554,0.352517 3.343967,0.10683 4.636719,-1.146484 0.442781,-0.42927 0.816589,-1.065182 0.948242,-1.716796 0.13165,-0.651613 0.02211,-1.318071 -0.5,-1.811524 -0.165702,-0.156608 -0.410571,-0.289734 -0.65918,-0.333984 C 12.542961,11.800747 12.179795,11.804431 12,12 c 0.200613,0.17993 0.358408,0.469873 0.313477,0.715821 -0.04524,0.247614 -0.180755,0.492224 -0.340821,0.657226 -0.502483,0.517985 -1.1823,0.726095 -1.844726,0.595703 C 9.4655045,13.838357 8.819162,13.468776 8.3828125,13.030274 7.4285915,12.071353 7.0011555,10.786021 7.022461,9.567383 7.029556,9.161168 7.0805145,8.751101 7.169922,8.3447265 7.5275585,6.719225 8.5414635,4.7006223 9.694336,3.6435547 10.43045,2.9686132 11.244656,2.4260171 12.111328,2 Z M 12,12 c -0.200612,-0.17993 -0.358407,-0.469873 -0.313476,-0.71582 0.04524,-0.247615 0.180754,-0.492225 0.34082,-0.657227 0.502484,-0.517984 1.1823,-0.7260945 1.844727,-0.595703 0.662425,0.130394 1.308767,0.499974 1.745117,0.938477 0.95422,0.95892 1.381656,2.244252 1.360351,3.46289 -0.0071,0.406215 -0.05805,0.816282 -0.147461,1.222657 -0.357637,1.625501 -1.371541,3.644104 -2.524414,4.701171 C 13.56955,21.031387 12.755345,21.573982 11.888672,22 h 8.55664 C 21.306624,22 22,21.315978 22,20.46582 V 14.070313 12.856446 C 21.530237,11.668156 20.853285,10.557989 19.938476,9.5859375 18.868969,8.449511 17.280297,7.4990045 15.635742,7.1464845 13.991188,6.793968 12.291775,7.0396545 10.999024,8.292969 c -0.442781,0.42927 -0.81659,1.0651825 -0.948243,1.716797 -0.1316505,0.651612 -0.02212,1.318071 0.5,1.811523 0.165702,0.156608 0.410571,0.289735 0.65918,0.333985 C 11.45704,12.199253 11.820205,12.19557 12,12 Z"/>
 <path style="opacity:0.2;fill:#ffffff" d="M 3.5546875,2 C 2.6933763,2 2,2.6840217 2,3.5341797 v 0.5 C 2,3.1840217 2.6933763,2.5 3.5546875,2.5 H 11.21875 C 11.509923,2.3202948 11.806012,2.1500797 12.111328,2 Z M 14.399414,7.0009765 c -1.232354,-0.02087 -2.430827,0.3520065 -3.40039,1.2919925 -0.442781,0.42927 -0.81659,1.0651825 -0.948243,1.716797 -0.052652,0.260603 -0.063787,0.523032 -0.02832,0.776367 0.0085,-0.09225 0.0097,-0.184178 0.02832,-0.276367 0.131654,-0.6516145 0.505462,-1.287527 0.948243,-1.716797 1.292751,-1.253315 2.992163,-1.499001 4.636718,-1.1464845 1.644555,0.35252 3.233227,1.3030265 4.302734,2.4394535 0.914809,0.972051 1.591761,2.082218 2.061524,3.270508 v -0.5 C 21.530237,11.668156 20.853285,10.557989 19.938476,9.5859375 18.868969,8.449511 17.280297,7.4990045 15.635742,7.1464845 15.224604,7.058355 14.810199,7.007933 14.399414,7.0009765 Z m -7.366211,2.917969 c -0.00215,0.049425 -0.00988,0.099113 -0.01074,0.1484375 -0.021305,1.218638 0.4061305,2.50397 1.3603515,3.462891 0.4363495,0.438502 1.082692,0.808083 1.7451175,0.938476 0.662426,0.130392 1.342243,-0.07772 1.844726,-0.595703 0.160066,-0.165002 0.295581,-0.409612 0.340821,-0.657226 0.01928,-0.105514 -0.0041,-0.218579 -0.04687,-0.328125 -0.06426,0.185347 -0.171356,0.358981 -0.293946,0.485351 -0.502483,0.517985 -1.1823,0.726095 -1.844726,0.595703 C 9.4655065,13.838357 8.819164,13.468776 8.3828145,13.030274 7.519957,12.163166 7.09229,11.029193 7.033205,9.9189455 Z m 4.700196,1.6933595 c -0.01965,0.05666 -0.03629,0.113901 -0.04687,0.171875 -0.02075,0.113587 0.0047,0.236332 0.05469,0.353516 C 11.841083,12.110423 11.934402,12.071353 12,12 11.885452,11.897261 11.790258,11.758109 11.733399,11.612305 Z M 12,12 c 0.107963,0.09683 0.200552,0.225753 0.258789,0.362305 0.173866,-0.04748 0.374318,-0.04551 0.53125,-0.01758 0.248609,0.04425 0.493478,0.177376 0.65918,0.333984 0.313299,0.296103 0.475105,0.655051 0.52832,1.035156 0.05149,-0.559802 -0.08008,-1.111516 -0.52832,-1.535156 -0.165702,-0.156608 -0.410571,-0.289734 -0.65918,-0.333984 C 12.542961,11.800747 12.179795,11.804431 12,12 Z m 4.966797,2.581055 c -0.01552,0.357615 -0.05817,0.717188 -0.136719,1.074219 -0.357637,1.625501 -1.371541,3.644104 -2.524414,4.701171 C 13.56955,21.031387 12.755345,21.573982 11.888672,22 h 0.892578 c 0.535353,-0.330407 1.047622,-0.706386 1.524414,-1.143555 1.152873,-1.057067 2.166777,-3.07567 2.524414,-4.701172 0.08941,-0.406374 0.140366,-0.816441 0.147461,-1.222656 0.0021,-0.11668 -0.0045,-0.234004 -0.01074,-0.351562 z"/>
</svg>

<svg xmlns="http://www.w3.org/2000/svg" width="24" height="24" version="1.0"><path style="opacity:.2" d="M9.5 2.5A7.484 7.484 0 0 0 2 10v5c0 4.155 3.345 7.5 7.5 7.5h5c4.155 0 7.5-3.345 7.5-7.5v-5c0-4.155-3.345-7.5-7.5-7.5z"/><path style="fill:#3584e4" d="M9.5 2A7.484 7.484 0 0 0 2 9.5v5C2 18.655 5.345 22 9.5 22h5c4.155 0 7.5-3.345 7.5-7.5v-5C22 5.345 18.655 2 14.5 2z"/><path style="opacity:.2;fill:#fff" d="M9.5 2A7.484 7.484 0 0 0 2 9.5v.5c0-4.155 3.345-7.5 7.5-7.5h5c4.155 0 7.5 3.345 7.5 7.5v-.5C22 5.345 18.655 2 14.5 2z"/><path style="opacity:.2" d="M3.555 2.5C2.693 2.5 2 3.184 2 4.034V11.644a10.221 10.221 0 0 0 2.062 3.27c1.069 1.136 2.658 2.087 4.302 2.44 1.645.352 3.344.106 4.637-1.147.443-.43.817-1.065.948-1.717.132-.651.022-1.318-.5-1.811a1.347 1.347 0 0 0-.659-.334c-.247-.044-.61-.04-.79.155.2.18.358.47.313.716-.045.247-.18.492-.34.657a2.005 2.005 0 0 1-1.845.596 3.528 3.528 0 0 1-1.745-.939c-.954-.959-1.382-2.244-1.36-3.463.007-.406.058-.816.147-1.222C7.528 7.219 8.54 5.2 9.694 4.144A10.25 10.25 0 0 1 12.111 2.5zM12 12.5c-.2-.18-.358-.47-.313-.716.045-.247.18-.492.34-.657a2.005 2.005 0 0 1 1.845-.596c.662.13 1.309.5 1.745.939.954.959 1.382 2.244 1.36 3.463a6.203 6.203 0 0 1-.147 1.222c-.358 1.626-1.371 3.644-2.524 4.701a10.25 10.25 0 0 1-2.417 1.644h8.556c.862 0 1.555-.684 1.555-1.534V13.356a10.221 10.221 0 0 0-2.062-3.27c-1.069-1.136-2.658-2.087-4.302-2.44-1.645-.352-3.344-.106-4.637 1.147a3.446 3.446 0 0 0-.948 1.717c-.132.651-.022 1.318.5 1.811.165.157.41.29.659.334.247.044.61.04.79-.155z"/><path style="fill:#ff9632" d="M3.555 2C2.693 2 2 2.684 2 3.534V11.144a10.221 10.221 0 0 0 2.062 3.27c1.069 1.136 2.658 2.087 4.302 2.44 1.645.352 3.344.106 4.637-1.147.443-.43.817-1.065.948-1.717.132-.651.022-1.318-.5-1.811a1.347 1.347 0 0 0-.659-.334c-.247-.044-.61-.04-.79.155.2.18.358.47.313.716-.045.247-.18.492-.34.657a2.005 2.005 0 0 1-1.845.596 3.528 3.528 0 0 1-1.745-.939c-.954-.959-1.382-2.244-1.36-3.463.007-.406.058-.816.147-1.222C7.528 6.719 8.54 4.7 9.694 3.644A10.25 10.25 0 0 1 12.111 2zM12 12c-.2-.18-.358-.47-.313-.716.045-.247.18-.492.34-.657a2.005 2.005 0 0 1 1.845-.596c.662.13 1.309.5 1.745.939.954.959 1.382 2.244 1.36 3.463a6.203 6.203 0 0 1-.147 1.222c-.358 1.626-1.371 3.644-2.524 4.701A10.25 10.25 0 0 1 11.889 22h8.556c.862 0 1.555-.684 1.555-1.534V12.856a10.221 10.221 0 0 0-2.062-3.27c-1.069-1.136-2.658-2.087-4.302-2.44-1.645-.352-3.344-.106-4.637 1.147a3.446 3.446 0 0 0-.948 1.717c-.132.651-.022 1.318.5 1.811.165.157.41.29.659.334.247.044.61.04.79-.155z"/><path style="opacity:.2;fill:#fff" d="M3.555 2C2.693 2 2 2.684 2 3.534v.5c0-.85.693-1.534 1.555-1.534h7.664c.29-.18.587-.35.892-.5zm10.844 5.001c-1.232-.02-2.43.352-3.4 1.292a3.446 3.446 0 0 0-.948 1.717c-.053.26-.064.523-.029.776.009-.092.01-.184.029-.276a3.446 3.446 0 0 1 .948-1.717c1.293-1.253 2.992-1.499 4.637-1.147 1.644.353 3.233 1.304 4.302 2.44A10.221 10.221 0 0 1 22 13.356v-.5a10.221 10.221 0 0 0-2.062-3.27c-1.069-1.136-2.658-2.087-4.302-2.44a6.426 6.426 0 0 0-1.237-.145zM7.033 9.919c-.002.05-.01.1-.01.148-.022 1.219.406 2.504 1.36 3.463a3.528 3.528 0 0 0 1.745.939 2.005 2.005 0 0 0 1.845-.596c.16-.165.295-.41.34-.657a.613.613 0 0 0-.046-.328 1.348 1.348 0 0 1-.294.485 2.005 2.005 0 0 1-1.845.596 3.528 3.528 0 0 1-1.745-.939c-.863-.867-1.29-2-1.35-3.111zm4.7 1.693c-.02.057-.036.114-.046.172a.627.627 0 0 0 .054.354A.53.53 0 0 0 12 12a1.04 1.04 0 0 1-.267-.388zM12 12c.108.097.2.226.259.362a1.272 1.272 0 0 1 1.19.317c.314.296.475.655.529 1.035.051-.56-.08-1.112-.529-1.535a1.347 1.347 0 0 0-.659-.334c-.247-.044-.61-.04-.79.155zm4.967 2.581a6.256 6.256 0 0 1-.137 1.074c-.358 1.626-1.371 3.644-2.524 4.701A10.25 10.25 0 0 1 11.889 22h.892c.536-.33 1.048-.706 1.525-1.144 1.153-1.057 2.166-3.075 2.524-4.7.09-.407.14-.817.148-1.223.002-.117-.005-.234-.011-.352z"/></svg>
